X: 68
T: HUGH O'NEILL'S LAMENT
B: O'Neill's 68
M: C
L: 1/8
Z: Transcribed by John Chambers <jc@trillian.mit.edu>
N: "Slow"
N: "Collected by J.O'Neill"
K:Dm
A>G \
| F2F>E (ED)(DE) | (FGA^F) (G2FG) | (Ad)(^cd) B2A>G | F2(ED) C2(DE) |
| F2(GA) D2(de) | f2(ed) c2(AG) | (^FG)(FG) (Ad)(de) | (=fd)(e>d) d2 ||
|| z(d/e/) \
| .f>.f(ed) eAAG | FcE~D C2(DE) | F2(F>G) (Ade^c) | d3(d/e/) f>fec |
| d2(BA) (GcED) | C2(DE) (Fd)(dc) | (.A>.A)(GE) (FD)(E>D) | D4- D2 ||


